assets/icons/18px/outline/tabcells-add-18px.svg

<svg fill="none" height="18" width="18" xmlns="http://www.w3.org/2000/svg" xmlns:xlink="http://www.w3.org/1999/xlink"><clipPath id="a"><path d="m0 0h18v18h-18z"/></clipPath><g clip-path="url(#a)"><path d="m10 14h-3.5c-1.886 0-2.828 0-3.414-.586s-.586-1.528-.586-3.414v-2c0-1.886 0-2.828.586-3.414s1.528-.586 3.414-.586h5c1.886 0 2.828 0 3.414.586s.586 1.528.586 3.414v.5" stroke="#fff" stroke-linecap="round" stroke-linejoin="round"/><path d="m13.5 10v4m2-2h-4" stroke="#fff" stroke-linecap="round"/><path d="m9.096 4a.25.25 0 1 0 -.5 0zm-.5 10a.25.25 0 1 0 .5 0zm2.008-3.117a.25.25 0 0 0 0-.5zm-7.604-.5a.25.25 0 1 0 0 .5zm12-2.563a.25.25 0 1 0 0-.5zm-12-.5a.25.25 0 0 0 0 .5zm5.596-3.32v10h.5v-10zm2.008 6.383h-7.604v.5h7.604zm4.396-3.063h-12v.5h12z" fill="#fff"/></g></svg>

<svg width="18" height="18" fill="none" xmlns="http://www.w3.org/2000/svg"><g clip-path="url(#clip0_821_19465)"><path d="M10 14H6.5c-1.886 0-2.828 0-3.414-.586C2.5 12.828 2.5 11.886 2.5 10V8c0-1.886 0-2.828.586-3.414C3.672 4 4.614 4 6.5 4h5c1.886 0 2.828 0 3.414.586.586.586.586 1.528.586 3.414v.5" stroke="#fff" stroke-linecap="round" stroke-linejoin="round"/><path d="M13.5 10v4m2-2h-4" stroke="#fff" stroke-linecap="round"/><path d="M9.096 4a.25.25 0 1 0-.5 0h.5zm-.5 10a.25.25 0 1 0 .5 0h-.5zm2.008-3.117a.25.25 0 0 0 0-.5v.5zM3 10.383a.25.25 0 1 0 0 .5v-.5zM15 7.82a.25.25 0 1 0 0-.5v.5zm-12-.5a.25.25 0 0 0 0 .5v-.5zM8.596 4v10h.5V4h-.5zm2.008 6.383H3v.5h7.604v-.5zM15 7.32H3v.5h12v-.5z" fill="#fff"/></g><defs><clipPath id="clip0_821_19465"><path fill="#fff" d="M0 0H18V18H0z"/></clipPath></defs></svg>
